packages/core/src/svgs/tokens/mono/CTK.svg

<svg width="24" height="24" viewBox="0 0 24 24" fill="none" xmlns="http://www.w3.org/2000/svg">
<path fill-rule="evenodd" clip-rule="evenodd" d="M18.9355 22H5.12966C4.5826 22 4.12966 21.6471 4.08848 21.1118L3.17671 7.52352C3.16452 7.33798 3.20431 7.15273 3.29159 6.98855C3.37887 6.82438 3.5102 6.68778 3.67083 6.59412L11.5062 2.15882C11.6709 2.05883 11.8532 2.00587 12.0356 2C12.2297 2 12.4296 2.05294 12.6002 2.15294L20.318 6.35882C20.6531 6.55294 20.8473 6.91177 20.8237 7.29412L19.9826 21.1059C19.9474 21.6353 19.4885 22 18.9355 22ZM17.9179 19.647H6.14142L5.31789 8.41177L12.0472 4.35293L18.6767 8.21765L17.912 19.647H17.9179ZM7.70613 9.35883L7.95318 13.7647H14.0708L13.9473 15.5294H10.2767L10.1826 14.353H7.9826L8.17672 17.8824H15.9003L16.3061 12H10.012L9.8944 10.5882L12.0297 9.05882L14.3531 10.5882V11.4117H16.3473L16.4885 9.35883L12.0943 6.70588L7.70613 9.35883Z" fill="white"/>
</svg>

<svg xmlns="http://www.w3.org/2000/svg" width="24" height="24" fill="none" viewBox="0 0 24 24">
    <path fill="#fff" fill-rule="evenodd" d="M18.936 22H5.13c-.547 0-1-.353-1.042-.888L3.177 7.524a1 1 0 0 1 .494-.93l7.835-4.435c.165-.1.347-.153.53-.159.194 0 .394.053.564.153l7.718 4.206c.335.194.53.553.506.935l-.841 13.812c-.036.53-.495.894-1.047.894m-1.018-2.353H6.14L5.318 8.412l6.73-4.06 6.629 3.866-.765 11.429zM7.706 9.359l.247 4.406h6.118l-.124 1.764h-3.67l-.094-1.176h-2.2l.194 3.53H15.9L16.306 12h-6.294l-.118-1.412 2.136-1.53 2.323 1.53v.824h1.994l.141-2.053-4.394-2.653z" clip-rule="evenodd"/>
</svg>
